src/assets/outline/HashtagUp.svg

<svg width="24" height="24" viewBox="0 0 24 24"  xmlns="http://www.w3.org/2000/svg">
<path d="M15 22.75H9C3.57 22.75 1.25 20.43 1.25 15V9C1.25 3.57 3.57 1.25 9 1.25H15C20.43 1.25 22.75 3.57 22.75 9V13C22.75 13.41 22.41 13.75 22 13.75C21.59 13.75 21.25 13.41 21.25 13V9C21.25 4.39 19.61 2.75 15 2.75H9C4.39 2.75 2.75 4.39 2.75 9V15C2.75 19.61 4.39 21.25 9 21.25H15C15.41 21.25 15.75 21.59 15.75 22C15.75 22.41 15.41 22.75 15 22.75Z" />
<path d="M18.9999 22.7505C18.5899 22.7505 18.2499 22.4105 18.2499 22.0005V17.8105L17.5299 18.5305C17.2399 18.8205 16.7599 18.8205 16.4699 18.5305C16.1799 18.2405 16.1799 17.7605 16.4699 17.4705L18.4699 15.4705C18.6799 15.2605 19.0099 15.1905 19.2899 15.3105C19.5699 15.4305 19.7499 15.7005 19.7499 16.0005V22.0005C19.7499 22.4105 19.4099 22.7505 18.9999 22.7505Z" />
<path d="M20.9999 18.7504C20.8099 18.7504 20.6199 18.6804 20.4699 18.5304L18.4699 16.5304C18.1799 16.2404 18.1799 15.7604 18.4699 15.4704C18.7599 15.1804 19.2399 15.1804 19.5299 15.4704L21.5299 17.4704C21.8199 17.7604 21.8199 18.2404 21.5299 18.5304C21.3799 18.6804 21.1899 18.7504 20.9999 18.7504Z" />
<path d="M8.90023 16.4901C8.87023 16.4901 8.84023 16.4901 8.82023 16.4901C8.41023 16.4401 8.11023 16.0701 8.16023 15.6601L9.20023 6.1801C9.25023 5.7701 9.62023 5.4701 10.0302 5.5201C10.4402 5.5701 10.7402 5.9401 10.6902 6.3501L9.64023 15.8201C9.60023 16.2001 9.27023 16.4901 8.90023 16.4901Z" />
<path d="M12.0501 16.4899C12.0201 16.4899 11.9901 16.4899 11.9701 16.4899C11.5601 16.4399 11.2601 16.0699 11.3101 15.6599L12.3601 6.18986C12.4101 5.77986 12.7801 5.47986 13.1901 5.52986C13.6001 5.57986 13.9001 5.94986 13.8501 6.35986L12.8001 15.8299C12.7601 16.1999 12.4301 16.4899 12.0501 16.4899Z" />
<path d="M15.9998 10.1699H6.52979C6.11979 10.1699 5.77979 9.82992 5.77979 9.41992C5.77979 9.00992 6.11979 8.66992 6.52979 8.66992H15.9998C16.4098 8.66992 16.7498 9.00992 16.7498 9.41992C16.7498 9.82992 16.4098 10.1699 15.9998 10.1699Z" />
<path d="M15.47 13.3301H6C5.59 13.3301 5.25 12.9901 5.25 12.5801C5.25 12.1701 5.59 11.8301 6 11.8301H15.47C15.88 11.8301 16.22 12.1701 16.22 12.5801C16.22 12.9901 15.89 13.3301 15.47 13.3301Z" />
</svg>

<?xml version="1.0" encoding="UTF-8"?>
<svg width="24" height="24" viewBox="0 0 24 24" xmlns="http://www.w3.org/2000/svg">
 <path d="m15 22.75h-6c-5.43 0-7.75-2.32-7.75-7.75v-6c0-5.43 2.32-7.75 7.75-7.75h6c5.43 0 7.75 2.32 7.75 7.75v4c0 0.41-0.34 0.75-0.75 0.75s-0.75-0.34-0.75-0.75v-4c0-4.61-1.64-6.25-6.25-6.25h-6c-4.61 0-6.25 1.64-6.25 6.25v6c0 4.61 1.64 6.25 6.25 6.25h6c0.41 0 0.75 0.34 0.75 0.75s-0.34 0.75-0.75 0.75z"/>
 <path d="m19 22.75c-0.41 0-0.75-0.34-0.75-0.75v-4.19l-0.72 0.72c-0.29 0.29-0.77 0.29-1.06 0s-0.29-0.77 0-1.06l2-2c0.21-0.21 0.54-0.28 0.82-0.16s0.46 0.39 0.46 0.69v6c0 0.41-0.34 0.75-0.75 0.75z"/>
 <path d="m21 18.75c-0.19 0-0.38-0.07-0.53-0.22l-2-2c-0.29-0.29-0.29-0.77 0-1.06s0.77-0.29 1.06 0l2 2c0.29 0.29 0.29 0.77 0 1.06-0.15 0.15-0.34 0.22-0.53 0.22z"/>
 <path d="m8.9002 16.49h-0.08c-0.41-0.05-0.71-0.42-0.66-0.83l1.04-9.48c0.05-0.41 0.42-0.71 0.82997-0.66 0.41 0.05 0.71 0.42 0.66 0.83l-1.05 9.47c-0.04 0.38-0.37 0.67-0.74 0.67z"/>
 <path d="m12.05 16.49h-0.08c-0.41-0.05-0.71-0.42-0.66-0.83l1.05-9.47c0.05-0.41 0.42-0.71 0.83-0.66s0.71 0.42 0.66 0.83l-1.05 9.47c-0.04 0.37-0.37 0.66-0.75 0.66z"/>
 <path d="m16 10.17h-9.47c-0.41 0-0.75-0.33998-0.75-0.74998s0.34-0.75 0.75-0.75h9.47c0.41 0 0.75 0.34 0.75 0.75s-0.34 0.74998-0.75 0.74998z"/>
 <path d="m15.47 13.33h-9.47c-0.41 0-0.75-0.34-0.75-0.75s0.34-0.75 0.75-0.75h9.47c0.41 0 0.75 0.34 0.75 0.75s-0.33 0.75-0.75 0.75z"/>
</svg>
